X:1
T:Hind Horn
M:2/4
L:1/8
K:G
 G2| GG F2| E2 DD| B,2A,-B,| D4| z2 GG| G2 F2| E2 DD| G2A-B| B4| z2 A2|\
 B2 d2| B2-A-G| A2A-B| D4| z2 DD| E2 GG/2-A/2| B2A-G| E2D-F| E4-| E2||\
